packages/katcn/src/icons/svg/headphones.svg

<svg width="24" height="25" viewBox="0 0 24 25" fill="none" xmlns="http://www.w3.org/2000/svg">
<path fill-rule="evenodd" clip-rule="evenodd" d="M12 4.20801C7.55228 4.20801 4 7.76029 4 12.208V12.5021C4.56235 12.1874 5.21041 12.008 5.9 12.008C7.9648 12.008 9.66537 13.7553 9.79779 15.7415C9.79926 15.7636 9.8 15.7858 9.8 15.808V18.308C9.8 20.4603 8.05228 22.208 5.9 22.208C3.77057 22.208 2 20.4829 2 18.408V17.108V15.908V12.208C2 6.65572 6.44772 2.20801 12 2.20801C17.5523 2.20801 22 6.65572 22 12.208V15.8985C22 15.9016 22 15.9048 22 15.908V18.408C22 20.5603 20.2523 22.308 18.1 22.308C15.9477 22.308 14.2 20.5603 14.2 18.408V15.908C14.2 13.7557 15.9477 12.008 18.1 12.008C18.7896 12.008 19.4377 12.1874 20 12.5021V12.208C20 7.76029 16.4477 4.20801 12 4.20801ZM20 15.9013C19.9964 14.8567 19.1455 14.008 18.1 14.008C17.0523 14.008 16.2 14.8603 16.2 15.908V18.408C16.2 19.4557 17.0523 20.308 18.1 20.308C19.1477 20.308 20 19.4557 20 18.408V17.1128C20 17.1112 20 17.1096 20 17.108V15.9013ZM4 17.108V15.908C4 14.8603 4.85228 14.008 5.9 14.008C6.82608 14.008 7.71707 14.8441 7.8 15.8449V18.308C7.8 19.3557 6.94772 20.208 5.9 20.208C4.82943 20.208 4 19.3331 4 18.408V17.108Z" fill="black"/>
</svg>

<svg xmlns="http://www.w3.org/2000/svg" fill="none" viewBox="0 0 24 25"><path fill="#000" fill-rule="evenodd" d="M12 4.208c-4.448 0-8 3.552-8 8v.294a3.9 3.9 0 0 1 1.9-.494c2.065 0 3.765 1.747 3.898 3.734l.002.066v2.5c0 2.152-1.748 3.9-3.9 3.9-2.13 0-3.9-1.725-3.9-3.8v-6.2c0-5.552 4.448-10 10-10s10 4.448 10 10v6.2c0 2.152-1.748 3.9-3.9 3.9a3.9 3.9 0 0 1-3.9-3.9v-2.5a3.902 3.902 0 0 1 5.8-3.406v-.294c0-4.448-3.552-8-8-8m8 11.693a1.9 1.9 0 0 0-1.9-1.893c-1.048 0-1.9.852-1.9 1.9v2.5c0 1.048.852 1.9 1.9 1.9s1.9-.852 1.9-1.9zM4 17.108v-1.2c0-1.048.852-1.9 1.9-1.9.926 0 1.817.836 1.9 1.837v2.463c0 1.048-.852 1.9-1.9 1.9-1.07 0-1.9-.875-1.9-1.8z" clip-rule="evenodd"/></svg>
